X:1
T:That Man of Calvary
T:That Man of Calvary
T:Manie Payne Ferguson
T:Manie Payne Ferguson, 1894
T:Public Domain Courtesy of the Cyber Hymnal™
C:Manie Payne Ferguson
Z:Public Domain
Z:Courtesy of the Cyber Hymnal™
%%score 1 ( 2 3 )
L:1/8
Q:1/4=107
M:6/8
K:Bb
V:1 treble 
V:2 bass 
V:3 bass 
V:1
 [DF][DF][DF] [DF]2 [DF] | [DB]2 [DF] [DF]3 | [EG][EG][EG] [EG]2 [EG] | [CF]2 [CE] [B,D]3 | %4
w: 1.~Fair- est of all the|earth be- side,|Chief- est of all un-|to Thy bride,|
w: 2.~Grant- ing the sin- ner|life and peace,|Grant- ing the cap- tive|sweet re- lease,|
w: 3.~Giv- ing the gifts ob-|tained for men,|Pour- ing out love be-|yond our ken,|
w: 4.~Com- fort of all my|earth- ly way,|Je- sus I’ll meet Thee|some sweet day;|
 [DF][DF][DF] [Fd]2 [^Fc] | [GB]2 [EG] [EG]3 | [DF][DF][DF] [EA]2 [Ec] | [Ec]2 [DB] [DB]2 || %8
w: Full- ness di- vine in|Thee I see,|Beau- ti- ful Man of|Cal- va- ry!|
w: Shed- ding His blood to|make us free,|Mer- ci- ful Man of|Cal- va- ry!|
w: Giv- ing us spot- less|pur- i- ty,|Boun- ti- ful Man of|Cal- va- ry!|
w: Cen- ter of glo- ry|Thee I’ll see,|Won- der- ful Man of|Cal- va- ry!|
"^Refrain" [DF] | [EG]2 [EG] [EB]2 [EG] | [DF]3- [DF]2 [DF] | [EG]2 [EG] [CF]2 [CE] | %12
w: ||||
w: That|Man of Cal- va-|ry * Has|won my heart from|
w: ||||
w: ||||
 [B,D]3- [B,D]2 [DF] | [Fd]2 [^Fc] [GB]2 [EG] | [DF]3- [DF]2"^riten." [Ge] | %15
w: |||
w: me, * And|died to set me|free, * Blest|
w: |||
w: |||
 [Fd]2 [DB] [Ec]2 [EA] | [DB]6 |] %17
w: ||
w: Man of Cal- va-|ry!|
w: ||
w: ||
V:2
 [B,,B,][B,,B,][B,,B,] [B,,B,]2 [B,,B,] | [B,,F,]2 [B,,B,] [B,,B,]3 | %2
 [E,B,][E,B,][E,B,] [E,B,]2 [E,B,] | [F,A,]2 [F,A,] [B,,F,]3 | %4
 [B,,B,][B,,B,][B,,B,] [B,,B,]2 [D,A,] | [E,G,]2 [E,B,] [E,B,]3 | %6
 [F,B,][F,B,][F,B,] [F,C]2 [F,A,] | [F,A,]2 [B,,F,] [B,,F,]2 || [B,,B,] | %9
 [E,B,]2 [E,B,] [E,G,]2 [E,B,] | [B,,B,]3- [B,,B,]2 [B,,B,] | [E,B,]2 [E,B,] [F,A,]2 [F,A,] | %12
 [B,,F,]3- [B,,F,]2 [B,,B,] | [B,,B,]2 [D,A,] [E,G,]2 [E,B,] | [B,,B,]3- [B,,B,]2 [E,B,] | %15
 [F,B,]2 F, [F,A,]2 [F,C] | [B,,B,]6 |] %17
V:3
 x6 | x6 | x6 | x6 | x6 | x6 | x6 | x5 || x | x6 | x6 | x6 | x6 | x6 | x6 | x2 F, x3 | x6 |] %17

